X:1
T:Minshall, 87.87 D
T:Wyatt Minshall
T:Minshall, 87.87 D
T:Public Domain
C:Wyatt Minshall
Z:Public Domain
%%score ( 1 2 ) 3
L:1/8
M:4/4
K:Bb
V:1 treble 
V:2 treble 
V:3 bass 
V:1
 [DF]3 [DF] [EG]2 F2 | [GB]3 [EG] [DF]2 [B,D]2 | [DF]3 [DF] [EG]2 [DF]2 | [FB]3 [Fd] [Fc]4 | %4
 [DF]3 [DF] [EG]2 F2 | [GB]3 [EG] [DF]2 [B,D]2 | [DF]3 [DF] [EG]2 [DF]2 | [Fd]3 [Ec] [DB]4 | %8
 [Fc]3 [Fc] [Fc]2 [Fc]2 | [DB]3 [EG] [DF]2 [FB]2 | [Fc]3 [Fc] [Fc]2 [Fc]2 | [DB]3 [EG] [DF]4 | %12
 [DF]3 [DF] [EG]2 F2 | [GB]3 [EG] [DF]2 [B,D]2 | [DF]3 [DF] [EG]2 [DF]2 | [Fd]3 [Ec] [DB]4 |] %16
V:2
 x6 F2 | x8 | x8 | x8 | x6 F2 | x8 | x8 | x8 | x8 | x8 | x8 | x8 | x6 F2 | x8 | x8 | x8 |] %16
V:3
 [B,,B,]3 [B,,B,] [B,,B,]2 [D,B,]2 | [E,B,]3 [E,B,] [B,,B,]2 [B,,F,]2 | %2
 [B,,B,]3 [B,,B,] [B,,B,]2 [B,,B,]2 | [D,B,]3 [B,,B,] [F,A,]4 | [B,,B,]3 [B,,B,] [B,,B,]2 [D,B,]2 | %5
 [E,B,]3 [E,B,] [B,,B,]2 [B,,F,]2 | [B,,B,]3 [B,,B,] [B,,B,]2 [B,,B,]2 | [F,B,]3 [F,A,] [B,,B,]4 | %8
 [F,A,]3 [F,A,] [F,A,]2 [F,A,]2 | [B,,B,]3 [B,,B,] [B,,B,]2 [D,F,]2 | %10
 [F,A,]3 [F,A,] [F,A,]2 [F,A,]2 | [B,,B,]3 [B,,B,] [B,,B,]4 | [B,,B,]3 [B,,B,] [B,,B,]2 [D,B,]2 | %13
 [E,B,]3 [E,B,] [B,,B,]2 [B,,F,]2 | [B,,B,]3 [B,,B,] [B,,B,]2 [B,,B,]2 | [F,B,]3 [F,A,] [B,,B,]4 |] %16

